release/img/faculty_marker.svg

<svg width="61" height="73" viewBox="0 0 61 73" fill="none" xmlns="http://www.w3.org/2000/svg">
<g clip-path="url(#clip0_468_566)">
<path d="M8.94305 8.89229C20.6588 -2.75446 39.6537 -2.75446 51.3695 8.89229C63.0852 20.539 63.0852 39.4222 51.3695 51.0689L30.1563 72.1572L8.94304 51.0689C-2.77268 39.4222 -2.77268 20.539 8.94305 8.89229Z" fill="#FF8001"/>
<path fill-rule="evenodd" clip-rule="evenodd" d="M30.6523 42.3844L21.564 33.8818L21.5874 33.8787L21.3369 33.6538C18.8688 31.3427 17.4824 28.2099 17.4824 24.9436C17.4824 21.6772 18.8688 18.5444 21.3369 16.2333L30.6389 7.52148L40.5122 16.7956C42.647 19.065 43.8173 21.988 43.8013 25.0105C43.7853 28.0331 42.584 30.9451 40.4253 33.1946V33.2134L39.8675 33.7413L30.6523 42.3844ZM30.649 12.5849L24.0357 18.7666C23.1659 19.577 22.4763 20.5406 22.0068 21.6016C21.5373 22.6626 21.2971 23.8 21.3002 24.9482C21.3 25.3347 21.3268 25.7208 21.3803 26.104L33.2408 15.0088L30.649 12.5849ZM25.345 32.3388L38.4213 20.1004H38.428C38.0883 19.6202 37.6978 19.1734 37.2623 18.7666L35.9496 17.539L22.8633 29.7836C23.2071 30.2682 23.6021 30.7192 24.0423 31.1299C24.1058 31.1924 24.2394 31.308 24.2394 31.308L24.2728 31.3392L25.345 32.3388ZM30.6623 37.3178L37.269 31.1237H37.2623C38.2782 30.1723 39.0453 29.0142 39.5036 27.7397C39.9619 26.4653 40.099 25.1091 39.9043 23.7769L28.0437 34.872L30.6623 37.3178Z" fill="white"/>
<path d="M40.5556 38.2018C42.0297 36.6694 43.064 34.8123 43.5616 32.8042H43.7152C44.075 34.6539 43.9772 36.556 43.4296 38.3649C42.8819 40.1738 41.8988 41.8415 40.5556 43.2402V43.259L39.9978 43.79L30.7859 52.4331L21.6976 43.9306C21.6442 43.8868 21.5106 43.765 21.4471 43.7057C19.9418 42.3 18.824 40.5735 18.1899 38.6746C17.5557 36.7757 17.4241 34.7612 17.8064 32.8042H17.9567C18.5109 35.0245 19.7202 37.0548 21.4471 38.6641C21.5106 38.7266 21.6442 38.8484 21.6976 38.8922L30.7859 47.3947L39.9978 38.7516L40.5556 38.2206V38.2018Z" fill="white"/>
</g>
<defs>
<clipPath id="clip0_468_566">
<rect width="60" height="72" fill="white" transform="translate(0.15625 0.157227)"/>
</clipPath>
</defs>
</svg>

<svg xmlns="http://www.w3.org/2000/svg" width="61" height="73" fill="none" viewBox="0 0 61 73">
  <g clip-path="url(#a)">
    <path fill="#FF8001" d="M8.943 8.892c11.716-11.646 30.71-11.646 42.427 0 11.715 11.647 11.715 30.53 0 42.177L30.156 72.157 8.943 51.07c-11.716-11.647-11.716-30.53 0-42.177Z"/>
    <path fill="#fff" fill-rule="evenodd" d="m30.652 42.384-9.088-8.502.023-.003-.25-.225c-2.468-2.311-3.855-5.444-3.855-8.71 0-3.267 1.387-6.4 3.855-8.71l9.302-8.713 9.873 9.275c2.135 2.269 3.305 5.192 3.29 8.215-.017 3.022-1.218 5.934-3.377 8.184v.018l-.557.528-9.216 8.643Zm-.003-29.8-6.613 6.183a8.683 8.683 0 0 0-2.03 2.835 8.207 8.207 0 0 0-.706 3.346c0 .387.027.773.08 1.156l11.86-11.095-2.591-2.424ZM25.345 32.34 38.421 20.1h.007c-.34-.48-.73-.927-1.166-1.333l-1.312-1.228-13.087 12.245a8.83 8.83 0 0 0 1.376 1.524l.034.031 1.072 1Zm5.317 4.979 6.607-6.194h-.007a8.657 8.657 0 0 0 2.242-3.384 8.19 8.19 0 0 0 .4-3.963l-11.86 11.095 2.618 2.446Z" clip-rule="evenodd"/>
    <path fill="#fff" d="M40.556 38.202a11.934 11.934 0 0 0 3.006-5.398h.153a11.55 11.55 0 0 1-.285 5.56 12.114 12.114 0 0 1-2.874 4.876v.019l-.558.531-9.212 8.643-9.088-8.502a12.168 12.168 0 0 1-3.508-5.256 11.522 11.522 0 0 1-.384-5.87h.15c.555 2.22 1.764 4.25 3.491 5.86.064.062.197.183.25.227l9.089 8.503 9.212-8.643.558-.531v-.02Z"/>
  </g>
  <defs>
    <clipPath id="a">
      <path fill="#fff" d="M0 0h60v72H0z" transform="translate(.156 .157)"/>
    </clipPath>
  </defs>
</svg>
